X:262
T:no name
R:jig
Z:id:hn-jig-262
M:6/8
K:G
edB G2A|Bed Bcd|edB G2A|BAF GFE|
DBD G2A|Bed Bcd|edB gdB|ABG ABd:|
|:e2f ~g3|eag fed|e2f ~g3|efg ~a3|
bag agf|gfe daf|gfe edB|ABG ABd:|
